X:1
T: The Earl's Mount
C:
R:Strathspey
Q: 128
K:D
M:4/4
L:1/16
|:A2|D4 D3F A3B d3e|f4 fgfe ed3 d3A|((3B2c2d2) ((3d2d2C2) AF3 D3A|((3B2A2G2) ((3A2G2F2) ((3G2E2D2) ((3C2B,2A,2)|
D4 D3F A3B d3e|f4 fgfe ed3 d3A|((3B2d2g2) ((3d2B2G2) ((3A2d2e2) ((3f2e2d2)|((3c2B2A2) ((3G2F2E2) FD3 D2:|
|:g2|f4 fgag fd3 d3f|((3e2f2g2) c3e fd3 d2cd|((3B2d2g2) ((3d2B2G2) ((3A2d2f2) ((3d2B2A2)|((3^G2B2d2) ((3f2e2d2) ce3 A3g|
f4 fgag fd3 d3f|((3e2f2g2) c3e fd3 d2cd|((3B2d2g2) ((3d2B2G2) ((3A2d2e2) ((3f2e2d2)|((3c2B2A2) ((3G2F2E2) FD3 D2:|
